!!!COM: Bach, Johann Sebastian
!!!CDT: 1685/3//-1750/7/28/
!!!OTL@@DE: Ich dank' dir, Gott, fuer all' Wohltat
!!!AGN: 4-Part Chorale
!!!SCT: BH 223
!!!SCT: BWV 346
**harm	**root	**kern	**kern	**kern	**kern
!	!	!bass	!tenor	!alto	!soprno
*	*Iorgan	*Iorgan	*Iorgan	*Iorgan	*Iorgan
*M4/4	*M4/4	*M4/4	*M4/4	*M4/4	*M4/4
*met(c)	*met(c)	*met(c)	*met(c)	*met(c)	*met(c)
*MM60	*MM60	*MM60	*MM60	*MM60	*MM60
*k[f#c#g#d#]	*k[f#c#g#d#]	*k[f#c#g#d#]	*k[f#c#g#d#]	*k[f#c#g#d#]	*k[f#c#g#d#]
*E:	*E:	*E:	*E:	*E:	*E:
I;	4CC;	4E	8G#	4e	4b
.	.	.	8A	.	.
=1	=1	=1	=1	=1	=1
V7d/IV	4CC	4D	4B	4e	4g#
viib/V	4FF#	4C#	4c#	4e	4a#
V;	4GG;	4BB;	4F#;	4d#;	4b;
Vb	4GG	4D#	4B	[4f#	4b
=2	=2	=2	=2	=2	=2
I	4CC	4E	[4B	8f#]	4g#
.	.	.	.	4e	.
V	4GG	4BB	8.B]	.	4f#
.	.	.	.	8d#	.
.	.	.	16A	.	.
I;	4CC;	4EE;	4G#;	4B;	4e;
I	4CC	4E	4G#	4B	4e
=3	=3	=3	=3	=3	=3
Vb	4GG	4D#	4B	4f#	4b
I	4CC	8E	4e	[4g#	4b
.	.	8D#	.	.	.
viib/V	4FF#	4C#	4e	8g#]	4cc#
.	.	.	.	8a#	.
V	4GG	4BB	4f#	[4b	4dd#
=4	=4	=4	=4	=4	=4
Ib	4CC	4G#	4e	8b]	4ee
.	.	.	.	8a#	.
Ic/V	4GG	4F#	4f#	[4b	4dd#
ii7b/V	4AA	4E	4g#	4b_	4cc#
V/V	4DD	4F#	8.f#	8b]	4cc#
.	.	.	.	8a#	.
.	.	.	16e	.	.
=5	=5	=5	=5	=5	=5
V;	2GG;	2BB;	2d#;	2f#;	2b;
r	4r	4r	4r	4r	4r
Ib	4CC	4G#	4e	[4g#	4b
!!linebreak: 3
=6	=6	=6	=6	=6	=6
ii7b	4DD	4A	4e	8g#]	4cc#
.	.	.	.	[8f#	.
V7b/vi	4EE	4BB#	4d#	8f#]	4dd#
.	.	.	.	8g#	.
vi;	4AA;	4C#;	4c#;	4g#;	4ee;
I	4CC	4E	4G#	[4e	4b
=7	=7	=7	=7	=7	=7
IV	4FF	4.A	4A	8e]	4cc#
.	.	.	.	8d#	.
Ib	8CC	.	4B	8e	4b
viib/ii	8CC#	8G#	.	8e#	.
ii	4DD	8F#	4c#	8f#	4a
.	.	8G#	.	8e#	.
iib	4DD	8A	4c#	[4f#	4a
.	.	8F#	.	.	.
=8	=8	=8	=8	=8	=8
VI;	2AA;	2c#;	2c#;	4f#]	2g#;
.	.	.	.	4e#;	.
r	4r	4r	4r	4r	4r
Ib	4CC	4G#	4e	[4b	4ee
=9	=9	=9	=9	=9	=9
IV	4FF	8A	4e	8b]	4cc#
.	.	8G#	.	16a	.
.	.	.	.	16g#	.
viib	4BB	4F#	4f#	4a	4dd#
I;	4CC;	4E;	4B;	4g#;	4ee;
ii	4DD	[4F#	8f#	4a	4cc#
.	.	.	8e	.	.
=10	=10	=10	=10	=10	=10
viioD7/ii	4CC#	8F#]	4d	[4g#	4b
.	.	8E#	.	.	.
ii	4DD	4F#	4c#	8g#]	4a
.	.	.	.	[8f#	.
VI;	4AA;	4C#;	4c#;	8f#]	4g#;
.	.	.	.	8e#;	.
Vb	4GG	4D#	[4B	4f#	4b
!!linebreak: 3
=11	=11	=11	=11	=11	=11
V7b/ii	4AA	4E#	8B]	4g#	4g#
.	.	.	[8c#	.	.
V7b/ii	4AA	4F##	8c#]	4d#	4a#
.	.	.	16B	.	.
.	.	.	16A#	.	.
iii;	4EE;	4G#;	4G#;	4d#;	4b;
Ib	8CC	8G#	8g#	8b	4ee
V7b/V	8DD	8A#	8f#	[8cc#	.
=12	=12	=12	=12	=12	=12
V	4GG	4B	4f#	8cc#]	4dd#
.	.	.	.	4b	.
V/V	4DD	4F#	8.f#	.	4cc#
.	.	.	.	8a#	.
.	.	.	16e	.	.
V;	4GG;	4BB;	4d#;	4f#;	4b;
Vb	4GG	4D#	4B	4f#	4b
=13	=13	=13	=13	=13	=13
I	4CC	8E	4B	4e	8g#
.	.	8F#	.	.	8a
Ib	8CC	8G#	8e	4e	4b
V7/IV	8CC	8E	8d	.	.
IV	4FF	4A	8.c#	8e	4cc#
.	.	.	.	4a	.
.	.	.	16d#	.	.
V/IV	4CC	[4E	8.e	.	4b
.	.	.	.	8g#	.
.	.	.	16d	.	.
=14	=14	=14	=14	=14	=14
ii7d	8DD	8E]	8c#	4.f#	4a
V7b	8GG	8D#	8B	.	.
I	4CC	4E	4B	.	4g#
.	.	.	.	[8e	.
ii7b	8DD	4AA	8c#	8e]	4f#
viic	8BB	.	8F#	16d#	.
.	.	.	.	16c#	.
V	4GG	4BB	8B	4d#	4f#
.	.	.	8A	.	.
=15	=15	=15	=15	=15	=15
I;	1CC;	1EE;	1G#;	1B;	1e;
==	==	==	==	==	==
*-	*-	*-	*-	*-	*-
!!chor2scor: -l 3 -s 0.6 -o %b.pmx
!!!YEC: Copyright 1994, David Huron
!!!YEC: Changes/Additions 2001 by Craig Stuart Sapp
!!!YEN: United States of America
!!!SMA: 371 Bach Chorales, edited by Ludwig Erk, C.F. Peters
!!!PDT: 1850, 1865
!!!ONB: Harmony and Root analysis done manually
